assets/img/braze_icons/safe.svg

<svg fill="none" height="24" viewBox="0 0 24 24" width="24" xmlns="http://www.w3.org/2000/svg"><g fill="#801ed7"><path d="m7.5 10.5c0-.82843.67157-1.5 1.5-1.5s1.5.67157 1.5 1.5c0 .8284-.67157 1.5-1.5 1.5s-1.5-.6716-1.5-1.5z"/><path clip-rule="evenodd" d="m17.8385 2h-11.67704c-.52711-.00002-.98193-.00003-1.35648.03057-.39535.0323-.78857.10362-1.16695.29641-.56448.28762-1.02343.74657-1.31105 1.31105-.19279.37838-.26411.7716-.29641 1.16695-.0306.37455-.03059.82928-.03057 1.3564v8.67712c-.00002.5272-.00003.982.03057 1.3565.0323.3954.10362.7886.29641 1.167.28762.5645.74657 1.0234 1.31105 1.311.37838.1928.7716.2641 1.16694.2964.37454.0306.82926.0306 1.35635.0306h11.67718c.5271 0 .982 0 1.3565-.0306.3954-.0323.7886-.1036 1.167-.2964.5645-.2876 1.0234-.7465 1.311-1.311.1928-.3784.2641-.7716.2964-1.167.0306-.3745.0306-.8293.0306-1.3564v-8.67716c0-.52714 0-.9819-.0306-1.35646-.0323-.39535-.1036-.78857-.2964-1.16695-.2876-.56448-.7465-1.02342-1.311-1.31104-.3784-.1928-.7716-.26411-1.167-.29642-.3745-.0306-.8293-.03058-1.3565-.03057zm.6615 4.5c0-.55228-.4477-1-1-1s-1 .44772-1 1v8c0 .5523.4477 1 1 1s1-.4477 1-1zm-9.5.5c-1.933 0-3.5 1.567-3.5 3.5s1.567 3.5 3.5 3.5 3.5-1.567 3.5-3.5-1.567-3.5-3.5-3.5z" fill-rule="evenodd"/><path d="m5 21c0-.5523.44772-1 1-1h3c.55229 0 1 .4477 1 1s-.44771 1-1 1h-3c-.55228 0-1-.4477-1-1z"/><path d="m14 21c0-.5523.4477-1 1-1h3c.5523 0 1 .4477 1 1s-.4477 1-1 1h-3c-.5523 0-1-.4477-1-1z"/></g></svg>

<svg width="24" height="24" viewBox="0 0 24 24" fill="none" xmlns="http://www.w3.org/2000/svg">
<path d="M7.5 10.5C7.5 9.67157 8.17157 9 9 9C9.82843 9 10.5 9.67157 10.5 10.5C10.5 11.3284 9.82843 12 9 12C8.17157 12 7.5 11.3284 7.5 10.5Z" fill="#801ED7"/>
<path fill-rule="evenodd" clip-rule="evenodd" d="M17.8385 2L6.16146 2C5.63435 1.99998 5.17953 1.99997 4.80498 2.03057C4.40963 2.06287 4.01641 2.13419 3.63803 2.32698C3.07355 2.6146 2.6146 3.07355 2.32698 3.63803C2.13419 4.01641 2.06287 4.40963 2.03057 4.80498C1.99997 5.17953 1.99998 5.63426 2 6.16138V14.8385C1.99998 15.3657 1.99997 15.8205 2.03057 16.195C2.06287 16.5904 2.13419 16.9836 2.32698 17.362C2.6146 17.9265 3.07355 18.3854 3.63803 18.673C4.01641 18.8658 4.40963 18.9371 4.80497 18.9694C5.17951 19 5.63423 19 6.16132 19L17.8385 19C18.3656 19 18.8205 19 19.195 18.9694C19.5904 18.9371 19.9836 18.8658 20.362 18.673C20.9265 18.3854 21.3854 17.9265 21.673 17.362C21.8658 16.9836 21.9371 16.5904 21.9694 16.195C22 15.8205 22 15.3657 22 14.8386V6.16144C22 5.6343 22 5.17954 21.9694 4.80498C21.9371 4.40963 21.8658 4.01641 21.673 3.63803C21.3854 3.07355 20.9265 2.61461 20.362 2.32699C19.9836 2.13419 19.5904 2.06288 19.195 2.03057C18.8205 1.99997 18.3657 1.99999 17.8385 2ZM18.5 6.5C18.5 5.94772 18.0523 5.5 17.5 5.5C16.9477 5.5 16.5 5.94772 16.5 6.5V14.5C16.5 15.0523 16.9477 15.5 17.5 15.5C18.0523 15.5 18.5 15.0523 18.5 14.5V6.5ZM9 7C7.067 7 5.5 8.567 5.5 10.5C5.5 12.433 7.067 14 9 14C10.933 14 12.5 12.433 12.5 10.5C12.5 8.567 10.933 7 9 7Z" fill="#801ED7"/>
<path d="M5 21C5 20.4477 5.44772 20 6 20H9C9.55229 20 10 20.4477 10 21C10 21.5523 9.55229 22 9 22H6C5.44772 22 5 21.5523 5 21Z" fill="#801ED7"/>
<path d="M14 21C14 20.4477 14.4477 20 15 20H18C18.5523 20 19 20.4477 19 21C19 21.5523 18.5523 22 18 22H15C14.4477 22 14 21.5523 14 21Z" fill="#801ED7"/>
</svg>
